public/assets/routes_avatar/financialDocuments.svg

<?xml version="1.0" encoding="UTF-8"?>
<svg width="60px" height="60px" viewBox="0 0 60 60" version="1.1" xmlns="http://www.w3.org/2000/svg" xmlns:xlink="http://www.w3.org/1999/xlink">
    <!-- Generator: Sketch 49.3 (51167) - http://www.bohemiancoding.com/sketch -->
    <title>业务报表-财务凭证</title>
    <desc>Created with Sketch.</desc>
    <defs></defs>
    <g id="icon" stroke="none" stroke-width="1" fill="none" fill-rule="evenodd">
        <g id="业务报表-财务凭证">
            <g id="Group-8">
                <circle id="Oval-Copy" fill="#49A7FF" cx="30" cy="30" r="30"></circle>
                <path d="M15.8329283,22.1956411 C15.3729147,22.1956411 15,22.5541386 15,22.9963676 C15,23.4385966 15.3729147,23.7970941 15.8329283,23.7970941 L19.1646415,23.7970941 L19.1646415,26.1992735 C19.1646415,26.6415025 19.5375562,27 19.9975698,27 C20.4575834,27 20.8304981,26.6415025 20.8304981,26.1992735 L20.8304981,23.7970941 L24.1622113,23.7970941 C24.6222249,23.7970941 24.9951396,23.4385966 24.9951396,22.9963676 C24.9951396,22.5541386 24.6222249,22.1956411 24.1622113,22.1956411 L20.8304981,22.1956411 L20.8304981,20.5941881 L24.1622113,20.5941881 C24.6222249,20.5941881 24.9951396,20.2356907 24.9951396,19.7934617 C24.9951396,19.3512326 24.6222249,18.9927352 24.1622113,18.9927352 L21.2569574,18.9927352 L21.2286378,18.9655105 L23.8940084,16.4047872 C24.2103785,16.0743637 24.1993638,15.5628699 23.8690399,15.2453166 C23.5387159,14.9277633 23.006652,14.9171745 22.6629403,15.2213134 L19.9975698,17.7836382 L17.3321992,15.2213134 C16.9884875,14.9171745 16.4564236,14.9277633 16.1260997,15.2453166 C15.7957758,15.5628699 15.7847611,16.0743637 16.1011312,16.4047872 L18.7665018,18.9671119 L18.7381822,18.9927352 L15.8329283,18.9927352 C15.3729147,18.9927352 15,19.3512326 15,19.7934617 C15,20.2356907 15.3729147,20.5941881 15.8329283,20.5941881 L19.1646415,20.5941881 L19.1646415,22.1956411 L15.8329283,22.1956411 Z M43.9285714,42.8561008 L42.8571429,42.8561008 L42.8571429,24.6329579 C42.8571429,23.4489151 41.897753,22.4890587 40.7142857,22.4890587 L38.5714286,22.4890587 C37.3879613,22.4890587 36.4285714,23.4489151 36.4285714,24.6329579 L36.4285714,42.8561008 L34.2857143,42.8561008 L34.2857143,32.136605 C34.2857143,30.9525622 33.3263245,29.9927058 32.1428571,29.9927058 L30,29.9927058 C28.8165327,29.9927058 27.8571429,30.9525622 27.8571429,32.136605 L27.8571429,42.8561008 L25.7142857,42.8561008 L25.7142857,36.4244033 C25.7142857,35.2403605 24.7548959,34.2805042 23.5714286,34.2805042 L21.4285714,34.2805042 C20.2451041,34.2805042 19.2857143,35.2403605 19.2857143,36.4244033 L19.2857143,42.8561008 L16.0714286,42.8561008 C15.4796949,42.8561008 15,43.336029 15,43.9280504 C15,44.5200718 15.4796949,45 16.0714286,45 L43.9285714,45 C44.5203051,45 45,44.5200718 45,43.9280504 C45,43.336029 44.5203051,42.8561008 43.9285714,42.8561008 Z M23.5714286,42.8561008 L21.4285714,42.8561008 L21.4285714,36.4244033 L23.5714286,36.4244033 L23.5714286,42.8561008 Z M32.1428571,42.8561008 L30,42.8561008 L30,32.136605 L32.1428571,32.136605 L32.1428571,42.8561008 Z M40.7142857,42.8561008 L38.5714286,42.8561008 L38.5714286,24.6329579 L40.7142857,24.6329579 L40.7142857,42.8561008 Z" id="Shape" fill="#FFFFFF" fill-rule="nonzero"></path>
            </g>
        </g>
    </g>
</svg>

<svg width="60" height="60" xmlns="http://www.w3.org/2000/svg"><g fill="none" fill-rule="evenodd"><circle fill="#49A7FF" cx="30" cy="30" r="30"/><path d="M15.833 22.196c-.46 0-.833.358-.833.8 0 .443.373.801.833.801h3.332V26.2c0 .443.373.801.833.801.46 0 .832-.358.832-.8v-2.403h3.332c.46 0 .833-.358.833-.8 0-.443-.373-.801-.833-.801H20.83v-1.602h3.332c.46 0 .833-.358.833-.8 0-.443-.373-.801-.833-.801h-2.905l-.028-.027 2.665-2.561a.814.814 0 0 0-.025-1.16.897.897 0 0 0-1.206-.024l-2.665 2.563-2.666-2.563a.897.897 0 0 0-1.206.024.814.814 0 0 0-.025 1.16l2.666 2.562-.029.026h-2.905c-.46 0-.833.358-.833.8 0 .443.373.801.833.801h3.332v1.602h-3.332zm28.096 20.66h-1.072V24.633c0-1.184-.96-2.144-2.143-2.144h-2.143c-1.183 0-2.142.96-2.142 2.144v18.223h-2.143v-10.72c0-1.183-.96-2.143-2.143-2.143H30c-1.183 0-2.143.96-2.143 2.144v10.72h-2.143v-6.433c0-1.184-.96-2.143-2.143-2.143H21.43c-1.184 0-2.143.96-2.143 2.143v6.432H16.07a1.072 1.072 0 0 0 0 2.144H43.93a1.072 1.072 0 0 0 0-2.144zm-20.358 0H21.43v-6.432h2.142v6.432zm8.572 0H30v-10.72h2.143v10.72zm8.571 0h-2.143V24.633h2.143v18.223z" fill="#FFF" fill-rule="nonzero"/></g></svg>
